!!!OTL: LIEBER TAG SEH ICH DICH WIEDER
!!!ARE: Europa, Mitteleuropa, Deutschland
!!!SCT: F0357
!!!YEM: Copyright 1995, estate of Helmut Schaffrath.
**kern
*ICvox
*Ivox
*M4/4
*k[b-]
*F:
=1
{4cc
4ff
4cc
8a
8b-
=2
8cc
8b-
8a
8g
4a
4f}
=3
{8b-
8a
8g
8f
4dd
4cc
=4
8cc
8b-
4a
2g}
=5
{4cc
8g
8b-
8b-
8a
8g
8f
=6
4.cc
8b-
4b-
4a}
=7
{4a
4dd
4ff
8ee
8dd
=8
4cc
8bn
8dd
2cc}
=9
{4cc
4g
4g
4a
=10
8cc
8b-
8b-
8a
4a
4g}
=11
{4cc
4ee
4ff
4cc
=12
8cc
8b-
4a
2g}
=13
{4f
4f
8g
8e
4f
=14
4.g
8a
8b-
8a
4f}
=15
{4dd
4f
8d
8b-
8a
8g
=16
4f
4e
2f}
==
!!!AGN: Jugend - Lied, Geburtstag
!!!ONB: ESAC (Essen Associative Code) Database: FINK
!!!AMT: simple quadruple
!!!AIN: vox
!!!EED: Helmut Schaffrath
!!!EEV: 1.0
*-
